build/svg/cmd/32/choosecontrols.svg

<?xml version="1.0" encoding="UTF-8" standalone="no"?>
<svg
   xmlns:dc="http://purl.org/dc/elements/1.1/"
   xmlns:cc="http://creativecommons.org/ns#"
   xmlns:rdf="http://www.w3.org/1999/02/22-rdf-syntax-ns#"
   xmlns:svg="http://www.w3.org/2000/svg"
   xmlns="http://www.w3.org/2000/svg"
   xmlns:xlink="http://www.w3.org/1999/xlink"
   xmlns:sodipodi="http://sodipodi.sourceforge.net/DTD/sodipodi-0.dtd"
   xmlns:inkscape="http://www.inkscape.org/namespaces/inkscape"
   height="32"
   viewBox="0 0 8.4666665 8.466667"
   width="32"
   version="1.1"
   id="svg70"
   sodipodi:docname="choosecontrols.svg"
   inkscape:version="0.92.5 (2060ec1f9f, 2020-04-08)"
   inkscape:export-filename="/home/jupiter007/Libreoffice yaru theme fullcolor/build/cmd/32/choosecontrols.png"
   inkscape:export-xdpi="95"
   inkscape:export-ydpi="95">
  <metadata
     id="metadata76">
    <rdf:RDF>
      <cc:Work
         rdf:about="">
        <dc:format>image/svg+xml</dc:format>
        <dc:type
           rdf:resource="http://purl.org/dc/dcmitype/StillImage" />
      </cc:Work>
    </rdf:RDF>
  </metadata>
  <defs
     id="defs74" />
  <sodipodi:namedview
     pagecolor="#ffffff"
     bordercolor="#666666"
     borderopacity="1"
     objecttolerance="10"
     gridtolerance="10"
     guidetolerance="10"
     inkscape:pageopacity="0"
     inkscape:pageshadow="2"
     inkscape:window-width="1920"
     inkscape:window-height="1011"
     id="namedview72"
     showgrid="true"
     inkscape:zoom="20.85965"
     inkscape:cx="5.3202524"
     inkscape:cy="12.636155"
     inkscape:window-x="0"
     inkscape:window-y="32"
     inkscape:window-maximized="1"
     inkscape:current-layer="svg70">
    <inkscape:grid
       type="xygrid"
       id="grid909" />
  </sodipodi:namedview>
  <linearGradient
     id="a"
     gradientUnits="userSpaceOnUse"
     x1="3.104041"
     x2="3.659887"
     y1="292.48022"
     y2="295.11829">
    <stop
       offset="0"
       stop-color="#64baff"
       id="stop2" />
    <stop
       offset="1"
       stop-color="#3689e6"
       id="stop4" />
  </linearGradient>
  <linearGradient
     id="b"
     gradientTransform="matrix(.8048 0 0 .60166 -516.818 -396.08)"
     gradientUnits="userSpaceOnUse"
     x1="731.05701"
     x2="731.05701"
     y1="654.815"
     y2="619.30701">
    <stop
       offset="0"
       stop-color="#55c1ec"
       id="stop7" />
    <stop
       offset="1"
       stop-color="#3689e6"
       id="stop9" />
  </linearGradient>
  <linearGradient
     id="c"
     gradientTransform="matrix(.04846 0 0 .5238 -20.405 -108.176)"
     gradientUnits="userSpaceOnUse"
     x1="292.85699"
     x2="292.85699"
     y1="211.076"
     y2="233.827">
    <stop
       offset="0"
       id="stop12" />
    <stop
       offset="1"
       stop-opacity="0"
       id="stop14" />
  </linearGradient>
  <linearGradient
     id="d">
    <stop
       offset="0"
       stop-color="#fff"
       id="stop17" />
    <stop
       offset=".12500216"
       stop-color="#fff"
       stop-opacity=".099265"
       id="stop19" />
    <stop
       offset=".99998999"
       stop-color="#fff"
       stop-opacity="0"
       id="stop21" />
    <stop
       offset="1"
       stop-color="#fff"
       stop-opacity=".551471"
       id="stop23" />
  </linearGradient>
  <linearGradient
     id="e"
     gradientUnits="userSpaceOnUse"
     x1="2.910417"
     x2="2.910417"
     xlink:href="#d"
     y1="293.22968"
     y2="294.35416" />
  <linearGradient
     id="f"
     gradientUnits="userSpaceOnUse"
     x1="2.910417"
     x2="2.910417"
     xlink:href="#d"
     y1="291.57602"
     y2="295.94165" />
  <rect
     y="1.0583333"
     x="4.4979167"
     height="2.9104166"
     width="2.9104168"
     id="rect894"
     style="opacity:0.6;fill:#000000;fill-opacity:1;fill-rule:nonzero;stroke:none;stroke-width:0.5291667;stroke-linecap:round;stroke-linejoin:round;stroke-miterlimit:4;stroke-dasharray:none;stroke-opacity:0.98705498"
     ry="0.26458332" />
  <rect
     style="opacity:1;fill:#ffffff;fill-opacity:1;fill-rule:nonzero;stroke:none;stroke-width:0.5291667;stroke-linecap:round;stroke-linejoin:round;stroke-miterlimit:4;stroke-dasharray:none;stroke-opacity:0.98705498"
     id="rect892"
     width="2.3812494"
     height="2.3812499"
     x="4.7625003"
     y="1.3229167" />
  <rect
     ry="0.26458332"
     style="opacity:0.6;fill:#000000;fill-opacity:1;fill-rule:nonzero;stroke:none;stroke-width:0.5291667;stroke-linecap:round;stroke-linejoin:round;stroke-miterlimit:4;stroke-dasharray:none;stroke-opacity:0.98705498"
     id="rect896"
     width="2.9104164"
     height="2.9104164"
     x="4.4979167"
     y="4.4979167" />
  <rect
     y="4.7625003"
     x="4.7625003"
     height="2.3812494"
     width="2.3812494"
     id="rect898"
     style="opacity:1;fill:#ffffff;fill-opacity:1;fill-rule:nonzero;stroke:none;stroke-width:0.5291667;stroke-linecap:round;stroke-linejoin:round;stroke-miterlimit:4;stroke-dasharray:none;stroke-opacity:0.98705498" />
  <path
     style="fill:#7c436f;fill-opacity:1;stroke:none;stroke-width:0.26458335px;stroke-linecap:butt;stroke-linejoin:miter;stroke-opacity:1"
     d="M 5.9531251,1.8520833 6.6145834,3.175 H 5.2916668"
     id="path900"
     inkscape:connector-curvature="0"
     sodipodi:nodetypes="ccc" />
  <circle
     style="opacity:1;fill:#7c436f;fill-opacity:1;fill-rule:nonzero;stroke:none;stroke-width:0.72760433;stroke-linecap:round;stroke-linejoin:round;stroke-miterlimit:4;stroke-dasharray:none;stroke-opacity:0.98705498"
     id="path904"
     cx="2.5135417"
     cy="2.5135417"
     r="1.4552083" />
  <path
     sodipodi:nodetypes="ccc"
     inkscape:connector-curvature="0"
     id="path4638"
     d="M 5.9531251,6.6145834 6.6145834,5.2916667 H 5.2916668"
     style="fill:#7c436f;fill-opacity:1;stroke:none;stroke-width:0.26458335px;stroke-linecap:butt;stroke-linejoin:miter;stroke-opacity:1" />
  <rect
     y="4.4979172"
     x="1.0583334"
     height="2.9104164"
     width="2.9104164"
     id="rect4640"
     style="opacity:1;fill:#7c436f;fill-opacity:1;fill-rule:nonzero;stroke:none;stroke-width:0.5291667;stroke-linecap:round;stroke-linejoin:round;stroke-miterlimit:4;stroke-dasharray:none;stroke-opacity:0.98705498"
     ry="0.26458332" />
  <path
     sodipodi:nodetypes="ccccccc"
     inkscape:connector-curvature="0"
     d="M 3.3224998,5.1884854 2.2327564,6.2767155 1.7045795,5.7494467 1.4836381,5.9701743 2.2327565,6.7177654 3.543445,5.4092124 Z"
     id="path938"
     style="color:#000000;font-style:normal;font-variant:normal;font-weight:normal;font-stretch:normal;font-size:medium;line-height:normal;font-family:sans-serif;font-variant-ligatures:normal;font-variant-position:normal;font-variant-caps:normal;font-variant-numeric:normal;font-variant-alternates:normal;font-feature-settings:normal;text-indent:0;text-align:start;text-decoration:none;text-decoration-line:none;text-decoration-style:solid;text-decoration-color:#000000;letter-spacing:normal;word-spacing:normal;text-transform:none;writing-mode:lr-tb;direction:ltr;text-orientation:mixed;dominant-baseline:auto;baseline-shift:baseline;text-anchor:start;white-space:normal;shape-padding:0;clip-rule:nonzero;display:inline;overflow:visible;visibility:visible;opacity:1;isolation:auto;mix-blend-mode:normal;color-interpolation:sRGB;color-interpolation-filters:linearRGB;solid-color:#000000;solid-opacity:1;vector-effect:none;fill:#ffffff;fill-opacity:1;fill-rule:nonzero;stroke:none;stroke-width:0.39687505;stroke-linecap:butt;stroke-linejoin:miter;stroke-miterlimit:4;stroke-dasharray:none;stroke-dashoffset:0;stroke-opacity:1;marker:none;color-rendering:auto;image-rendering:auto;shape-rendering:auto;text-rendering:auto;enable-background:accumulate" />
  <path
     style="color:#000000;font-style:normal;font-variant:normal;font-weight:normal;font-stretch:normal;font-size:medium;line-height:normal;font-family:sans-serif;font-variant-ligatures:normal;font-variant-position:normal;font-variant-caps:normal;font-variant-numeric:normal;font-variant-alternates:normal;font-feature-settings:normal;text-indent:0;text-align:start;text-decoration:none;text-decoration-line:none;text-decoration-style:solid;text-decoration-color:#000000;letter-spacing:normal;word-spacing:normal;text-transform:none;writing-mode:lr-tb;direction:ltr;text-orientation:mixed;dominant-baseline:auto;baseline-shift:baseline;text-anchor:start;white-space:normal;shape-padding:0;clip-rule:nonzero;display:inline;overflow:visible;visibility:visible;opacity:1;isolation:auto;mix-blend-mode:normal;color-interpolation:sRGB;color-interpolation-filters:linearRGB;solid-color:#000000;solid-opacity:1;vector-effect:none;fill:#ffffff;fill-opacity:1;fill-rule:nonzero;stroke:none;stroke-width:0.39687505;stroke-linecap:butt;stroke-linejoin:miter;stroke-miterlimit:4;stroke-dasharray:none;stroke-dashoffset:0;stroke-opacity:1;marker:none;color-rendering:auto;image-rendering:auto;shape-rendering:auto;text-rendering:auto;enable-background:accumulate"
     id="path4642"
     d="M 3.3224999,1.7489017 2.2327565,2.8371318 1.7045796,2.309863 1.4836382,2.5305906 2.2327566,3.2781817 3.5434451,1.9696287 Z"
     inkscape:connector-curvature="0"
     sodipodi:nodetypes="ccccccc" />
</svg>

<svg xmlns="http://www.w3.org/2000/svg" height="32" viewBox="0 0 8.467 8.467" width="32"><linearGradient id="a"><stop offset="0" stop-color="#fff"/><stop offset=".125" stop-color="#fff" stop-opacity=".099"/><stop offset="1" stop-color="#fff" stop-opacity="0"/><stop offset="1" stop-color="#fff" stop-opacity=".551"/></linearGradient><rect y="1.058" x="4.498" height="2.91" width="2.91" ry=".265" opacity=".6"/><path fill="#fff" d="M4.763 1.323h2.381v2.381H4.763z"/><rect ry=".265" width="2.91" height="2.91" x="4.498" y="4.498" opacity=".6"/><path fill="#fff" d="M4.763 4.763h2.381v2.381H4.763z"/><path d="M5.953 1.852l.662 1.323H5.292" fill="#7c436f"/><circle cx="2.514" cy="2.514" r="1.455" fill="#7c436f"/><path d="M5.953 6.615l.662-1.323H5.292" fill="#7c436f"/><rect y="4.498" x="1.058" height="2.91" width="2.91" ry=".265" fill="#7c436f"/><path d="M3.322 5.188l-1.09 1.089-.527-.528-.221.221.749.748 1.31-1.309zM3.322 1.749l-1.09 1.088-.527-.527-.221.22.749.748 1.31-1.308z" style="line-height:normal;font-variant-ligatures:normal;font-variant-position:normal;font-variant-caps:normal;font-variant-numeric:normal;font-variant-alternates:normal;font-feature-settings:normal;text-indent:0;text-align:start;text-decoration-line:none;text-decoration-style:solid;text-decoration-color:#000;text-transform:none;text-orientation:mixed;white-space:normal;shape-padding:0;isolation:auto;mix-blend-mode:normal;solid-color:#000;solid-opacity:1;marker:none" color="#000" font-weight="400" font-family="sans-serif" overflow="visible" fill="#fff"/></svg>
